assets/icons/error.svg

<?xml version="1.0" encoding="UTF-8" standalone="no"?>
<svg viewBox="0 0 24 24" height="24" width="24" version="1.1" id="svg4" sodipodi:docname="error.svg" inkscape:version="1.1 (ce6663b3b7, 2021-05-25)"
   xmlns:inkscape="http://www.inkscape.org/namespaces/inkscape"
   xmlns:sodipodi="http://sodipodi.sourceforge.net/DTD/sodipodi-0.dtd"
   xmlns="http://www.w3.org/2000/svg"
   xmlns:svg="http://www.w3.org/2000/svg">
   <defs id="defs8" />
   <sodipodi:namedview id="namedview6" pagecolor="#ffffff" bordercolor="#666666" borderopacity="1.0" inkscape:pageshadow="2" inkscape:pageopacity="0.0" inkscape:pagecheckerboard="0" showgrid="true" width="24px" inkscape:zoom="28" inkscape:cx="13.767857" inkscape:cy="12.321429" inkscape:window-width="1920" inkscape:window-height="1043" inkscape:window-x="1920" inkscape:window-y="0" inkscape:window-maximized="1" inkscape:current-layer="svg4">
      <inkscape:grid type="xygrid" id="grid821" />
   </sodipodi:namedview>
   <path id="path845" style="fill:#808080;fill-rule:evenodd;stroke-linecap:square;stroke-linejoin:round;fill-opacity:1" d="M 12 2 A 10 10 0 0 0 2 12 A 10 10 0 0 0 12 22 A 10 10 0 0 0 22 12 A 10 10 0 0 0 12 2 z M 12 3 A 9 9 0 0 1 21 12 A 9 9 0 0 1 12 21 A 9 9 0 0 1 3 12 A 9 9 0 0 1 12 3 z M 8.3535156 7.6464844 L 7.6464844 8.3535156 L 11.292969 12 L 7.6464844 15.646484 L 8.3535156 16.353516 L 12 12.707031 L 15.646484 16.353516 L 16.353516 15.646484 L 12.707031 12 L 16.353516 8.3535156 L 15.646484 7.6464844 L 12 11.292969 L 8.3535156 7.6464844 z " />
</svg>

<svg height="24" width="24" xmlns="http://www.w3.org/2000/svg"><path style="fill:gray;stroke-linecap:square;stroke-linejoin:round;fill-opacity:1" d="M12 2A10 10 0 0 0 2 12a10 10 0 0 0 10 10 10 10 0 0 0 10-10A10 10 0 0 0 12 2zm0 1a9 9 0 0 1 9 9 9 9 0 0 1-9 9 9 9 0 0 1-9-9 9 9 0 0 1 9-9zM8.354 7.646l-.708.708L11.293 12l-3.647 3.646.708.708L12 12.707l3.646 3.647.708-.708L12.707 12l3.647-3.646-.708-.708L12 11.293 8.354 7.646z"/></svg>
